resources/cart.svg

<svg height="32" width="32" xmlns="http://www.w3.org/2000/svg">
    <path d="M26.9 21.4H9.4c-.7 0-1.3.5-1.3 1.3S8.6 24 9.4 24h17.5c.7 0 1.3-.5 1.3-1.3.3-.8-.4-1.3-1.3-1.3zm-13.6 8.7c1.3 0 2.7-1.2 2.7-2.7 0-1.3-1.2-2.7-2.7-2.7s-2.7 1.2-2.7 2.7c0 1.6 1.4 2.7 2.7 2.7zm10.6 0c1.3 0 2.7-1.2 2.7-2.7 0-1.3-1.2-2.7-2.7-2.7s-2.7 1.2-2.7 2.7c.2 1.6 1.4 2.7 2.7 2.7zm7.6-22.7H7.6v-.2L5.7 2.5c-.3-.3-.6-.6-1.1-.6H.7c-.7 0-.7.6-.7 1 0 .6-.2 1.1.7 1.3h2.7l.7 1.5 4 13.3c0 .2.2.5.8.5h18.5c.3 0 .7-.2.7-.5L32 8.3c0-.2-.2-.9-.5-.9z" fill="#f4f4f7" fill-rule="evenodd"/>
</svg>

<!-- This Source Code Form is subject to the terms of the Mozilla Public
   - License, v. 2.0. If a copy of the MPL was not distributed with this
   - file, You can obtain one at http://mozilla.org/MPL/2.0/. -->
<svg xmlns="http://www.w3.org/2000/svg" width="32" height="32" viewBox="0 0 32 32">
   <path fill="#f4f4f7" fill-rule="evenodd"
      d="M26.9,21.4H9.4c-0.7,0-1.3,0.5-1.3,1.3s0.5,1.3,1.3,1.3h17.5c0.7,0,1.3-0.5,1.3-1.3
  C28.5,21.9,27.8,21.4,26.9,21.4z M13.3,30.1c1.3,0,2.7-1.2,2.7-2.7c0-1.3-1.2-2.7-2.7-2.7s-2.7,1.2-2.7,2.7
  C10.6,29,12,30.1,13.3,30.1z M23.9,30.1c1.3,0,2.7-1.2,2.7-2.7c0-1.3-1.2-2.7-2.7-2.7c-1.5,0-2.7,1.2-2.7,2.7
  C21.4,29,22.6,30.1,23.9,30.1z M31.5,7.4L31.5,7.4H7.6V7.2L5.7,2.5C5.4,2.2,5.1,1.9,4.6,1.9H0.7C0,1.9,0,2.5,0,2.9
  C0,3.5-0.2,4,0.7,4.2h2.7l0.7,1.5l4,13.3c0,0.2,0.2,0.5,0.8,0.5h18.5c0.3,0,0.7-0.2,0.7-0.5L32,8.3C32,8.1,31.8,7.4,31.5,7.4z" />
</svg>
